Sources/FrostedUI/Resources/Icons.xcassets/sun24.imageset/sun-24.svg

<svg width="24" height="24" viewBox="0 0 24 24" fill="none" xmlns="http://www.w3.org/2000/svg" data-fui-icon="true">
  <path
    d="M12 18.75C12.4142 18.75 12.75 19.0858 12.75 19.5V22.25C12.75 22.6642 12.4142 23 12 23C11.5858 23 11.25 22.6642 11.25 22.25V19.5C11.25 19.0858 11.5858 18.75 12 18.75ZM6.16602 16.7725C6.45891 16.4796 6.93466 16.4796 7.22754 16.7725C7.52042 17.0653 7.5204 17.5411 7.22754 17.834L5.28223 19.7783C4.98931 20.071 4.51449 20.0711 4.22168 19.7783C3.92887 19.4855 3.92903 19.0107 4.22168 18.7178L6.16602 16.7725ZM16.7725 16.7725C17.0653 16.4796 17.5411 16.4796 17.834 16.7725L19.7783 18.7178C20.071 19.0107 20.0711 19.4855 19.7783 19.7783C19.4855 20.0711 19.0107 20.071 18.7178 19.7783L16.7725 17.834C16.4796 17.5411 16.4796 17.0653 16.7725 16.7725ZM12 7C14.7614 7 17 9.23858 17 12C17 14.7614 14.7614 17 12 17C9.23858 17 7 14.7614 7 12C7 9.23858 9.23858 7 12 7ZM12 8.5C10.067 8.5 8.5 10.067 8.5 12C8.5 13.933 10.067 15.5 12 15.5C13.933 15.5 15.5 13.933 15.5 12C15.5 10.067 13.933 8.5 12 8.5ZM4.5 11.25C4.91421 11.25 5.25 11.5858 5.25 12C5.25 12.4142 4.91421 12.75 4.5 12.75H1.75C1.33579 12.75 1 12.4142 1 12C1 11.5858 1.33579 11.25 1.75 11.25H4.5ZM22.25 11.25C22.6642 11.25 23 11.5858 23 12C23 12.4142 22.6642 12.75 22.25 12.75H19.5C19.0858 12.75 18.75 12.4142 18.75 12C18.75 11.5858 19.0858 11.25 19.5 11.25H22.25ZM4.22168 4.22168C4.51452 3.92884 4.98932 3.92895 5.28223 4.22168L7.22656 6.16602C7.51946 6.45891 7.51946 6.93367 7.22656 7.22656C6.93367 7.51946 6.45891 7.51946 6.16602 7.22656L4.22168 5.28223C3.92894 4.98932 3.92884 4.51452 4.22168 4.22168ZM18.7178 4.22168C19.0107 3.92894 19.4855 3.92884 19.7783 4.22168C20.0712 4.51452 20.0711 4.98932 19.7783 5.28223L17.834 7.22656C17.5411 7.51946 17.0663 7.51946 16.7734 7.22656C16.4805 6.93367 16.4805 6.45891 16.7734 6.16602L18.7178 4.22168ZM12 1C12.4142 1 12.75 1.33579 12.75 1.75V4.5C12.75 4.91421 12.4142 5.25 12 5.25C11.5858 5.25 11.25 4.91421 11.25 4.5V1.75C11.25 1.33579 11.5858 1 12 1Z"
    fill="currentColor"
  />
</svg>

<svg xmlns="http://www.w3.org/2000/svg" width="24" height="24" fill="none" data-fui-icon="true" viewBox="0 0 24 24"><path fill="currentColor" d="M12 18.75a.75.75 0 0 1 .75.75v2.75a.75.75 0 0 1-1.5 0V19.5a.75.75 0 0 1 .75-.75m-5.834-1.977a.751.751 0 0 1 1.062 1.061l-1.946 1.944a.75.75 0 0 1-1.06-1.06zm10.607 0a.75.75 0 0 1 1.061 0l1.944 1.945a.75.75 0 0 1-1.06 1.06l-1.945-1.944a.75.75 0 0 1 0-1.061M12 7a5 5 0 1 1 0 10 5 5 0 0 1 0-10m0 1.5a3.5 3.5 0 1 0 0 7 3.5 3.5 0 0 0 0-7m-7.5 2.75a.75.75 0 0 1 0 1.5H1.75a.75.75 0 0 1 0-1.5zm17.75 0a.75.75 0 0 1 0 1.5H19.5a.75.75 0 0 1 0-1.5zM4.222 4.222a.75.75 0 0 1 1.06 0l1.945 1.944a.75.75 0 1 1-1.061 1.06L4.222 5.283a.75.75 0 0 1 0-1.06m14.496 0a.75.75 0 0 1 1.06 1.06l-1.944 1.945a.75.75 0 1 1-1.06-1.061zM12 1a.75.75 0 0 1 .75.75V4.5a.75.75 0 0 1-1.5 0V1.75A.75.75 0 0 1 12 1"/></svg>
